X:707
T:Rondall's Reel 
C:Joe Buchanan's Scottish Tome - Page 229.0
I:229 0
C:Graeme Mitchell
R:Reel
Z:Carl Allison
L:1/8
M:4/4
K:G
"G"^ABdg "D/G"dBeB | "G"^ABdg "D/G"dBeB | "G"d2 (3Bde "B/G"g2 e2 | "A/D7"f4 "D7"f4 |
"D7"AdfA "A/D7"gAfA | "D7"aAgA "A/D7"fAeA | "Am"fgfe "D7"d2e2 | "G" B4 "D7"B4 |
"G"^ABdg "D/G"dBeB | "G"ABdg "D/G"dBeB | "G"d2 (3Bde "B/G"g2 e2 | "A/D7"f4 "D7"f3 A |
"D7"fAgA "A/D7"aAgA | "D7"fAeA "A/D7"dAcA | "Am"cdcA "D7"D2 F2 | "G"G4 "D7"G3 ^A |]
"G"BdgB "D/G"aBgB | "G"bBaB "D/G"fBdB | "G"gdBd "B/G"g2 b2 | "A/D7"a4 "D7"a4 |
"D7"AdfA "A/D7"gAfA | "D7"aAgA "A/D7"fAeA | "Am"fgfe "D7"d2 e2 | "G"B4 "D7"B3 ^A |
"G"BdgB "D/G"aBgB | "G"bBaB "D/G"gBdB | "G"gdBd "B/G"g2 b2 | "A/D7"a4 "D7"a3 A |
"D7"fAgA "A/D7"aAgA | "D7"fAeA "A/D7"dAcA | "Am"cdcA "D7"D2 F2 | "G"G4 G4 |]

